ix/personalcard_bulk.svg

<svg viewBox="0 0 24 24" fill="none" xmlns="http://www.w3.org/2000/svg" height="1em" width="1em">
  <path opacity="0.4" d="M18 3H6C3.79 3 2 4.78 2 6.97V17.03C2 19.22 3.79 21 6 21H18C20.21 21 22 19.22 22 17.03V6.97C22 4.78 20.21 3 18 3Z" fill="#292D32"/>
  <path d="M19 8.75H14C13.59 8.75 13.25 8.41 13.25 8C13.25 7.59 13.59 7.25 14 7.25H19C19.41 7.25 19.75 7.59 19.75 8C19.75 8.41 19.41 8.75 19 8.75Z" fill="#292D32"/>
  <path d="M19 12.75H15C14.59 12.75 14.25 12.41 14.25 12C14.25 11.59 14.59 11.25 15 11.25H19C19.41 11.25 19.75 11.59 19.75 12C19.75 12.41 19.41 12.75 19 12.75Z" fill="#292D32"/>
  <path d="M19 16.75H17C16.59 16.75 16.25 16.41 16.25 16C16.25 15.59 16.59 15.25 17 15.25H19C19.41 15.25 19.75 15.59 19.75 16C19.75 16.41 19.41 16.75 19 16.75Z" fill="#292D32"/>
  <path d="M8.49945 11.7899C9.77523 11.7899 10.8095 10.7557 10.8095 9.47992C10.8095 8.20414 9.77523 7.16992 8.49945 7.16992C7.22368 7.16992 6.18945 8.20414 6.18945 9.47992C6.18945 10.7557 7.22368 11.7899 8.49945 11.7899Z" fill="#292D32"/>
  <path d="M9.29954 13.1098C8.76954 13.0598 8.21954 13.0598 7.68954 13.1098C6.00954 13.2698 4.65954 14.5998 4.49954 16.2798C4.48954 16.4198 4.52954 16.5598 4.62954 16.6598C4.72954 16.7598 4.85954 16.8298 4.99954 16.8298H11.9995C12.1395 16.8298 12.2795 16.7698 12.3695 16.6698C12.4595 16.5698 12.5095 16.4298 12.4995 16.2898C12.3295 14.5998 10.9895 13.2698 9.29954 13.1098Z" fill="#292D32"/>
</svg>

<svg viewBox="0 0 24 24" fill="none" xmlns="http://www.w3.org/2000/svg" height="1em" width="1em">
  <path opacity=".4" d="M18 3H6C3.79 3 2 4.78 2 6.97v10.06C2 19.22 3.79 21 6 21h12c2.21 0 4-1.78 4-3.97V6.97C22 4.78 20.21 3 18 3Z" fill="#292D32"/>
  <path d="M19 8.75h-5c-.41 0-.75-.34-.75-.75s.34-.75.75-.75h5c.41 0 .75.34.75.75s-.34.75-.75.75Zm0 4h-4c-.41 0-.75-.34-.75-.75s.34-.75.75-.75h4c.41 0 .75.34.75.75s-.34.75-.75.75Zm0 4h-2c-.41 0-.75-.34-.75-.75s.34-.75.75-.75h2c.41 0 .75.34.75.75s-.34.75-.75.75ZM8.5 11.79a2.31 2.31 0 1 0 0-4.62 2.31 2.31 0 0 0 0 4.62Zm.8 1.32a8.66 8.66 0 0 0-1.61 0c-1.68.16-3.03 1.49-3.19 3.17-.01.14.03.28.13.38.1.1.23.17.37.17h7c.14 0 .28-.06.37-.16.09-.1.14-.24.13-.38a3.55 3.55 0 0 0-3.2-3.18Z" fill="#292D32"/>
</svg>
